X:5
T: Up to Your Knees in Sand
S: Mary Bergin
Z: B.Black
R: reel
M: 4/4
L: 1/8
K: G
D |G2 GF GABc |dBeB dBAF |D2 FD ADFD | DEFD AFEF |
G2 GF GABc | dBeB dBAF | Be e2 dBAF | DEFD E3 :|
D |GB B2 eBdB |FA A2 AFdA |GB B2 eBdB | AGFG E3 F |
GB B2 eBdB | FA A2 AFdA | G2 GF GBdB | AGFG E3 :|

